X:23
T:Concert Hornpipe (Craig 23)
M:4/4
L:1/8
B:Empire Violin Collection of Hornpipes
H:Published by Thomas Craig
H:Music Publisher, &c.
H:George Street, Aberdeen, N.B.
Z:Peter Dunk December 2011
R:(hornpipe)
Q:1/4=140
K:F
!segno!c2|: Acac Acac | Bcgc Ac a2 | b2 a>b g>af>f |1 e>fd>e c2 B2 :|2e>d (3cde f2 H:|!
A2 |: a>Ag>A f>Ae>A | d>Ad>f a>gd>A | ^c>Ac>e a>ec>A |1 d>Ad>f a>fd>A :|2d>Af>e d2 !D.S.!|]

